src/img/slim-starterkit-logomark.svg

<svg xmlns="http://www.w3.org/2000/svg" width="400" height="220" viewBox="0 0 400 220">
  <defs>
    <linearGradient id="slim-starterkit-logomark-a" x1="95.36%" x2="4.351%" y1="0%" y2="94.379%">
      <stop offset="0%" stop-color="#FD97B6"/>
      <stop offset="100%" stop-color="#FA5E80"/>
    </linearGradient>
  </defs>
  <g fill="none" fill-rule="evenodd">
    <rect width="400" height="220" fill="#FFF"/>
    <path fill="url(#slim-starterkit-logomark-a)" d="M80.4523965,146.074878 C78.8389453,146.074878 77.3721934,145.83042 76.052097,145.341495 C74.7320005,144.85257 73.5524875,144.192532 72.5135227,143.36136 C71.4745579,142.530188 70.5822838,141.552354 69.8366738,140.427827 C69.0910637,139.303301 68.4676942,138.105453 67.9665465,136.834249 C67.4653987,135.563045 67.0987108,134.261303 66.8664716,132.928983 C66.6342324,131.596664 66.5181145,130.282699 66.5181145,128.987048 L66.5181145,123.009975 C66.5181145,119.758626 65.7602927,117.424046 64.2446264,116.006165 C62.7289601,114.588283 60.4188259,113.879353 57.3141545,113.879353 L57.3141545,106.54552 C60.4188259,106.54552 62.7289601,105.83659 64.2446264,104.418709 C65.7602927,103.000828 66.5181145,100.641802 66.5181145,97.3415604 L66.5181145,91.3644868 C66.5181145,90.0932828 66.6220094,88.785429 66.8298024,87.4408863 C67.0375954,86.0963436 67.373726,84.7884899 67.8382044,83.5172859 C68.3026828,82.2460818 68.895495,81.0543459 69.6166588,79.9420424 C70.3378226,78.8297389 71.2178737,77.8580158 72.2568386,77.026844 C73.2958034,76.1956721 74.4936507,75.5356338 75.8504166,75.0467091 C77.2071824,74.5577845 78.7411604,74.3133259 80.4523965,74.3133259 L81.6991481,80.0703845 C80.207928,80.021492 79.0589724,80.3331768 78.2522468,81.0054482 C77.4455211,81.6777195 76.8588204,82.5638821 76.4921269,83.6639625 C76.1254335,84.7640429 75.9115321,85.9924476 75.8504166,87.3492134 C75.789301,88.7059792 75.7587437,90.0443903 75.7587437,91.3644868 L75.7587437,97.3415604 C75.7587437,100.250662 75.0437021,102.829701 73.6135976,105.078754 C72.1834931,107.327807 69.9650309,109.039018 66.9581445,110.212437 C69.9894771,111.385856 72.2140508,113.084843 73.6319322,115.30945 C75.0498136,117.534057 75.7587437,120.100873 75.7587437,123.009975 L75.7587437,128.987048 C75.7587437,130.307145 75.8381927,131.645556 75.9970932,133.002322 C76.1559937,134.359087 76.4554556,135.587492 76.8954877,136.687573 C77.3355199,137.787653 77.940555,138.673816 78.7106113,139.346087 C79.4806676,140.018358 80.4768365,140.330043 81.6991481,140.281151 L80.4523965,146.074878 Z M140.743766,122.34993 C140.743766,121.543204 140.584868,120.81594 140.267067,120.168115 C139.949266,119.520289 139.411457,118.927477 138.653624,118.38966 C137.895791,117.851843 136.89351,117.356814 135.646753,116.904559 C134.399995,116.452304 132.847683,116.042835 130.989769,115.676142 C128.716269,115.211664 126.644482,114.649409 124.774346,113.989361 C122.904209,113.329312 121.303005,112.540933 119.970685,111.624199 C118.638366,110.707466 117.605528,109.631848 116.872141,108.397313 C116.138754,107.162778 115.772066,105.726584 115.772066,104.088686 C115.772066,102.475235 116.150977,100.965703 116.90881,99.5600448 C117.666643,98.1543865 118.730039,96.9259818 120.099027,95.8747939 C121.468016,94.8236059 123.099778,93.9924465 124.994361,93.3812908 C126.888944,92.770135 128.972954,92.4645617 131.246453,92.4645617 C133.691076,92.4645617 135.891204,92.7823579 137.846903,93.4179599 C139.802601,94.0535619 141.46492,94.9336131 142.833909,96.0581397 C144.202898,97.1826663 145.260181,98.4966315 146.005791,100.000075 C146.751401,101.503518 147.124201,103.123056 147.124201,104.858739 L140.340406,104.858739 C140.340406,104.003121 140.120393,103.16585 139.680361,102.346901 C139.240329,101.527952 138.629182,100.800688 137.846903,100.165086 C137.064623,99.529484 136.117346,99.0161208 135.005042,98.6249811 C133.892739,98.2338414 132.639888,98.0382745 131.246453,98.0382745 C129.804125,98.0382745 128.539052,98.1971726 127.451195,98.5149736 C126.363337,98.8327746 125.45884,99.2605773 124.737677,99.7983943 C124.016513,100.336211 123.472592,100.959581 123.105899,101.668522 C122.739205,102.377462 122.555861,103.110838 122.555861,103.868671 C122.555861,104.650951 122.702537,105.347658 122.995891,105.958814 C123.289246,106.56997 123.796498,107.120001 124.517662,107.608926 C125.238825,108.097851 126.204437,108.537876 127.414526,108.929016 C128.624614,109.320156 130.158592,109.699067 132.016506,110.06576 C134.461129,110.579131 136.649034,111.171943 138.580286,111.844214 C140.511538,112.516486 142.137188,113.323199 143.457284,114.264379 C144.777381,115.205559 145.785773,116.299512 146.48249,117.546269 C147.179208,118.793027 147.527562,120.235333 147.527562,121.873231 C147.527562,123.633359 147.130316,125.234563 146.335814,126.676891 C145.541311,128.119219 144.435136,129.353735 143.017255,130.380476 C141.599373,131.407218 139.900386,132.201709 137.920241,132.763972 C135.940096,133.326235 133.776637,133.607363 131.429799,133.607363 C128.740714,133.607363 126.345019,133.246786 124.242643,132.525623 C122.140267,131.804459 120.36183,130.85107 118.90728,129.665428 C117.452729,128.479786 116.340442,127.104706 115.570386,125.540147 C114.80033,123.975588 114.415307,122.349938 114.415307,120.663148 L121.199102,120.663148 C121.296887,122.056583 121.669687,123.229985 122.317512,124.183388 C122.965337,125.136791 123.772051,125.906836 124.737677,126.493545 C125.703303,127.080255 126.772809,127.495834 127.946228,127.740297 C129.119648,127.984759 130.280826,128.106988 131.429799,128.106988 C134.290008,128.106988 136.55125,127.581402 138.213594,126.530214 C139.875938,125.479026 140.71932,124.085612 140.743766,122.34993 Z M160.508445,76.5501448 L180.786493,76.5501448 L180.786493,127.006913 L193.730707,127.006913 L193.730707,132.87398 L160.508445,132.87398 L160.508445,127.006913 L174.002697,127.006913 L174.002697,82.4538801 L160.508445,82.4538801 L160.508445,76.5501448 Z M205.574847,93.197945 L225.852894,93.197945 L225.852894,127.006913 L238.797109,127.006913 L238.797109,132.87398 L205.574847,132.87398 L205.574847,127.006913 L219.069099,127.006913 L219.069099,99.1016802 L205.574847,99.1016802 L205.574847,93.197945 Z M218.189039,82.7839026 C218.189039,81.659376 218.52517,80.7120987 219.197441,79.9420424 C219.869713,79.1719862 220.890327,78.7869638 222.259316,78.7869638 C223.603859,78.7869638 224.618362,79.1719862 225.302857,79.9420424 C225.987351,80.7120987 226.329593,81.659376 226.329593,82.7839026 C226.329593,83.883983 225.987351,84.8007029 225.302857,85.5340898 C224.618362,86.2674768 223.603859,86.6341647 222.259316,86.6341647 C220.890327,86.6341647 219.869713,86.2674768 219.197441,85.5340898 C218.52517,84.8007029 218.189039,83.883983 218.189039,82.7839026 Z M252.694722,93.197945 L252.878068,96.9381996 C253.684793,95.5447644 254.742077,94.4569235 256.04995,93.6746441 C257.357824,92.8923647 258.940693,92.4890079 260.798607,92.4645617 C264.441095,92.4645617 266.873459,93.8824218 268.09577,96.7181846 C268.87805,95.4469806 269.910888,94.4263658 271.194315,93.6563095 C272.477742,92.8862532 274.036166,92.4890079 275.869633,92.4645617 C278.778735,92.4645617 281.015531,93.3568357 282.58009,95.1414106 C284.144649,96.9259855 284.926916,99.6272535 284.926916,103.245296 L284.926916,132.87398 L278.473144,132.87398 L278.473144,103.171957 C278.473144,99.8472699 276.945277,98.1971741 273.889498,98.2216203 C273.082773,98.2216203 272.386065,98.3316267 271.799356,98.5516428 C271.212646,98.7716589 270.723729,99.0711207 270.332589,99.4500373 C269.94145,99.8289539 269.635876,100.268979 269.41586,100.770127 C269.195844,101.271275 269.049169,101.79075 268.97583,102.328567 L268.97583,132.87398 L262.522058,132.87398 L262.522058,103.135288 C262.522058,101.546283 262.167593,100.32399 261.458652,99.4683719 C260.749711,98.6127538 259.625201,98.1971741 258.085089,98.2216203 C256.667207,98.2216203 255.567144,98.5027478 254.784864,99.0650111 C254.002585,99.6272744 253.428107,100.372873 253.061413,101.30183 L253.061413,132.87398 L246.607641,132.87398 L246.607641,93.197945 L252.694722,93.197945 Z M317.386391,140.281151 C318.584257,140.330043 319.568203,140.018358 320.338259,139.346087 C321.108315,138.673816 321.71335,137.787653 322.153382,136.687573 C322.593415,135.587492 322.898988,134.359087 323.070112,133.002322 C323.241235,131.645556 323.326796,130.307145 323.326796,128.987048 L323.326796,123.009975 C323.326796,121.592093 323.491805,120.247571 323.821829,118.976367 C324.151854,117.705163 324.659105,116.519538 325.3436,115.419458 C326.028094,114.319377 326.889811,113.335431 327.928776,112.46759 C328.967741,111.599749 330.208368,110.860262 331.650696,110.249106 C328.790487,109.026794 326.688142,107.278915 325.3436,105.005416 C323.999057,102.731916 323.326796,100.177323 323.326796,97.3415604 L323.326796,91.3644868 C323.326796,90.0443903 323.296238,88.7059792 323.235123,87.3492134 C323.174007,85.9924476 322.960106,84.7640429 322.593412,83.6639625 C322.226719,82.5638821 321.640018,81.6777195 320.833293,81.0054482 C320.026567,80.3331768 318.877611,80.021492 317.386391,80.0703845 L318.633143,74.3133259 C320.344379,74.3133259 321.878357,74.5577845 323.235123,75.0467091 C324.591889,75.5356338 325.783625,76.1956721 326.810366,77.026844 C327.837108,77.8580158 328.717159,78.8297389 329.450546,79.9420424 C330.183933,81.0543459 330.782857,82.2460818 331.247335,83.5172859 C331.711813,84.7884899 332.047944,86.0963436 332.255737,87.4408863 C332.46353,88.785429 332.567425,90.0932828 332.567425,91.3644868 L332.567425,97.3415604 C332.567425,100.641802 333.319135,103.000828 334.822578,104.418709 C336.326022,105.83659 338.642267,106.54552 341.771385,106.54552 L341.771385,113.879353 C338.642267,113.879353 336.326022,114.588283 334.822578,116.006165 C333.319135,117.424046 332.567425,119.758626 332.567425,123.009975 L332.567425,128.987048 C332.567425,130.258252 332.445196,131.566106 332.200733,132.910649 C331.956271,134.255191 331.589583,135.563045 331.100658,136.834249 C330.611734,138.105453 329.988364,139.303301 329.230531,140.427827 C328.472698,141.552354 327.580424,142.530188 326.553682,143.36136 C325.52694,144.192532 324.353539,144.85257 323.033442,145.341495 C321.713346,145.83042 320.246594,146.074878 318.633143,146.074878 L317.386391,140.281151 Z"/>
  </g>
</svg>

<svg xmlns="http://www.w3.org/2000/svg" width="400" height="220"><defs><linearGradient id="a" x1="95.36%" x2="4.351%" y1="0%" y2="94.379%"><stop offset="0%" stop-color="#FD97B6"/><stop offset="100%" stop-color="#FA5E80"/></linearGradient></defs><g fill="none" fill-rule="evenodd"><path fill="#FFF" d="M0 0h400v220H0z"/><path fill="url(#a)" d="M80.452 146.075c-1.613 0-3.08-.245-4.4-.734a12.651 12.651 0 0 1-3.538-1.98 12.762 12.762 0 0 1-2.677-2.933 19.277 19.277 0 0 1-1.87-3.594 19.975 19.975 0 0 1-1.1-3.905 22.924 22.924 0 0 1-.349-3.942v-5.977c0-3.251-.758-5.586-2.273-7.004-1.516-1.418-3.826-2.127-6.93-2.127v-7.333c3.104 0 5.414-.71 6.93-2.127 1.515-1.418 2.273-3.777 2.273-7.077v-5.978c0-1.27.104-2.579.312-3.923a20.55 20.55 0 0 1 1.008-3.924 17.738 17.738 0 0 1 1.779-3.575 12.233 12.233 0 0 1 2.64-2.915c1.039-.831 2.237-1.491 3.593-1.98 1.357-.49 2.891-.734 4.602-.734L81.7 80.07c-1.491-.049-2.64.263-3.447.935-.806.673-1.393 1.559-1.76 2.659-.367 1.1-.58 2.328-.642 3.685a89.232 89.232 0 0 0-.091 4.015v5.978c0 2.909-.715 5.488-2.145 7.737-1.43 2.249-3.649 3.96-6.656 5.133 3.031 1.174 5.256 2.873 6.674 5.097 1.418 2.225 2.127 4.792 2.127 7.701v5.977c0 1.32.08 2.659.238 4.015.159 1.357.458 2.585.898 3.686.44 1.1 1.046 1.986 1.816 2.658.77.672 1.766.984 2.988.935l-1.247 5.794zm60.292-23.725c0-.807-.16-1.534-.477-2.182-.318-.648-.856-1.24-1.613-1.778-.758-.538-1.76-1.033-3.007-1.485-1.247-.453-2.8-.862-4.657-1.229-2.274-.464-4.346-1.027-6.216-1.687-1.87-.66-3.471-1.448-4.803-2.365-1.333-.917-2.365-1.992-3.099-3.227-.733-1.234-1.1-2.67-1.1-4.308 0-1.614.379-3.123 1.137-4.529.758-1.406 1.821-2.634 3.19-3.685 1.369-1.051 3-1.883 4.895-2.494 1.895-.61 3.979-.916 6.252-.916 2.445 0 4.645.317 6.6.953 1.957.636 3.619 1.516 4.988 2.64 1.369 1.125 2.426 2.439 3.172 3.942.745 1.504 1.118 3.123 1.118 4.859h-6.784c0-.856-.22-1.693-.66-2.512a7.186 7.186 0 0 0-1.833-2.182c-.782-.636-1.73-1.149-2.842-1.54s-2.365-.587-3.759-.587c-1.442 0-2.707.16-3.795.477-1.088.318-1.992.746-2.713 1.283-.721.538-1.265 1.162-1.632 1.87a4.732 4.732 0 0 0-.55 2.2c0 .783.147 1.48.44 2.09.293.612.8 1.162 1.522 1.65.72.49 1.686.93 2.897 1.321 1.21.391 2.744.77 4.602 1.137 2.444.513 4.632 1.106 6.563 1.778 1.932.672 3.557 1.48 4.877 2.42 1.32.942 2.329 2.036 3.025 3.282.697 1.247 1.046 2.69 1.046 4.327 0 1.76-.398 3.362-1.192 4.804-.795 1.442-1.9 2.677-3.319 3.703-1.418 1.027-3.117 1.822-5.097 2.384-1.98.562-4.143.843-6.49.843-2.69 0-5.085-.36-7.187-1.081-2.103-.722-3.881-1.675-5.336-2.86-1.454-1.186-2.567-2.561-3.337-4.126-.77-1.564-1.155-3.19-1.155-4.877h6.784c.098 1.394.47 2.567 1.119 3.52a7.79 7.79 0 0 0 2.42 2.31 10.09 10.09 0 0 0 3.208 1.247c1.174.245 2.335.367 3.484.367 2.86 0 5.121-.526 6.784-1.577 1.662-1.051 2.505-2.444 2.53-4.18zm19.764-45.8h20.278v50.457h12.945v5.867h-33.223v-5.867h13.495V82.454h-13.495V76.55zm45.067 16.648h20.278v33.809h12.944v5.867h-33.222v-5.867h13.494V99.102h-13.494v-5.904zm12.614-10.414c0-1.125.336-2.072 1.008-2.842.673-.77 1.693-1.155 3.062-1.155 1.345 0 2.36.385 3.044 1.155.684.77 1.027 1.717 1.027 2.842 0 1.1-.343 2.017-1.027 2.75-.685.733-1.7 1.1-3.044 1.1-1.369 0-2.39-.367-3.062-1.1-.672-.733-1.008-1.65-1.008-2.75zm34.506 10.414l.183 3.74c.807-1.393 1.864-2.481 3.172-3.263 1.308-.783 2.89-1.186 4.749-1.21 3.642 0 6.074 1.417 7.297 4.253a9.058 9.058 0 0 1 3.098-3.062c1.284-.77 2.842-1.167 4.676-1.191 2.909 0 5.146.892 6.71 2.676 1.565 1.785 2.347 4.486 2.347 8.104v29.629h-6.454v-29.702c0-3.325-1.528-4.975-4.584-4.95-.806 0-1.503.11-2.09.33-.586.22-1.075.52-1.466.898a4.134 4.134 0 0 0-.917 1.32 5.813 5.813 0 0 0-.44 1.559v30.545h-6.454v-29.739c0-1.589-.354-2.811-1.063-3.667-.71-.855-1.834-1.27-3.374-1.246-1.418 0-2.518.28-3.3.843a4.91 4.91 0 0 0-1.724 2.237v31.572h-6.453V93.198h6.087zm64.691 47.083c1.198.049 2.182-.263 2.952-.935s1.375-1.558 1.815-2.658c.44-1.1.746-2.329.917-3.686.171-1.356.257-2.695.257-4.015v-5.977c0-1.418.165-2.762.495-4.034.33-1.27.837-2.456 1.522-3.557a12.306 12.306 0 0 1 2.585-2.951c1.039-.868 2.28-1.608 3.722-2.219-2.86-1.222-4.963-2.97-6.307-5.244-1.345-2.273-2.017-4.828-2.017-7.663v-5.978c0-1.32-.03-2.658-.092-4.015-.061-1.357-.275-2.585-.642-3.685-.366-1.1-.953-1.986-1.76-2.659-.806-.672-1.955-.984-3.447-.935l1.247-5.757c1.711 0 3.245.245 4.602.734 1.357.489 2.549 1.149 3.575 1.98a12.772 12.772 0 0 1 2.64 2.915 17.184 17.184 0 0 1 1.797 3.575c.465 1.271.8 2.58 1.009 3.924a25.64 25.64 0 0 1 .311 3.923v5.978c0 3.3.752 5.659 2.256 7.077 1.503 1.418 3.82 2.127 6.948 2.127v7.333c-3.129 0-5.445.71-6.948 2.127-1.504 1.418-2.256 3.753-2.256 7.004v5.977c0 1.271-.122 2.58-.366 3.924a21.738 21.738 0 0 1-1.1 3.923 17.92 17.92 0 0 1-1.87 3.594 13.337 13.337 0 0 1-2.677 2.933 12.379 12.379 0 0 1-3.52 1.98c-1.32.49-2.787.734-4.4.734l-1.248-5.794z"/></g></svg>
